!!!!SEGMENT: pl-cz--i-27_gotschalk-filip--hymno-in-g-amatorem-paupertatis.krn
!!!cenid: 18xx:96
!!!COM: Gotschalk, Filip
!!!COM-rismID: pe30020320
!!!CDT: 1760-1809
!!!CNT:
!!!OTL: Hymno in G (Amatorem paupertatis)
!!!PDT:
!!!AGN: Sacred; Hymn
!!!SMS-siglum: PL-CZ
!!!SMS-shelfmark: I-27
!!!SMS-shelfwork: W
!!!NIFC-rismSourceID: 300000366
!!!NIFC-rismChildID: 300000366
!!!NIFC-islandoraID: pl-cz:31591
!!!URL-pdf-islandora: https://repozytorium.nifc.pl/islandora/object/pl-cz%3A31591/datastream/PDF/view
!!!URL-scan: https://polish.musicsources.pl/pl/lokalizacje/galeria/rekopisy/6729/1 @EN{Scan on Polish Music Sources Website} @PL{Skany w portalu Dziedzictwo Muzyki Polskiej w otwartym dostępie}
!!!ONB-nifc:
!!!AIN: 1 alto 1 bass 1 organ 1 tenor 1 vox
!!!key:
**kern	**fb	**text	**kern	**text	**text	**kern	**text	**text	**kern	**text	**text	**kern	**text	**text
*part5	*	*part5	*part4	*part4	*part4	*part3	*part3	*part3	*part2	*part2	*part2	*part1	*part1	*part1
*staff5	*	*staff5	*staff4	*staff4	*staff4	*staff3	*staff3	*staff3	*staff2	*staff2	*staff2	*staff1	*staff1	*staff1
*Iorgan	*	*	*Ibass	*	*	*Itenor	*	*	*Ialto	*	*	*Ivox	*	*
*I"Organo	*	*	*I"Basso	*	*	*I"Tenore	*	*	*I"Alto	*	*	*I"Canto	*	*
*I'Org	*	*	*I'B	*	*	*I'T	*	*	*I'A	*	*	*I'C	*	*
*clefF4	*	*	*clefF4	*	*	*clefC4	*	*	*clefC3	*	*	*clefC1	*	*
*k[f#]	*	*	*k[f#]	*	*	*k[f#]	*	*	*k[f#]	*	*	*k[f#]	*	*
*G:	*	*	*G:	*	*	*G:	*	*	*G:	*	*	*G:	*	*
*M3/4	*	*	*M3/4	*	*	*M3/4	*	*	*M3/4	*	*	*M3/4	*	*
=1	=1	=1	=1	=1	=1	=1	=1	=1	=1	=1	=1	=1	=1	=1
!	!	!	!	!	!	!	!	!	!	!	!	!LO:TX:a:B:t=Moderato	!	!
!	!	!	!LO:'ogonek po prawej stronie'	!	!	!LO:'ogonek po prawej stronie'	!	!	!LO:'ogonek po prawej stronie'	!	!	!LO:'ogonek po prawej stronie'	!	!
4G	.	.	2G	A-	Re-	2d	A-	Re-	2g	A-	Re-	2b	A-	Re-
4GG	.	.	.	.	.	.	.	.	.	.	.	.	.	.
4r	.	.	4G	-ma-	-gi	4d	-ma-	-gi	4a	-ma-	-gi	8ccL	-ma-	-gi
.	.	.	.	.	.	.	.	.	.	.	.	8bJ	.	.
=2	=2	=2	=2	=2	=2	=2	=2	=2	=2	=2	=2	=2	=2	=2
!	!	!	!LO:'ogonek po prawej stronie'	!	!	!LO:'ogonek po prawej stronie'	!	!	!	!	!	!	!	!
4r	.	.	2d	-to-	Re-	2d	-to-	Re-	8gL	-to-	Re-	8bL	-to-	Re-
.	.	.	.	.	.	.	.	.	8f#J	.	.	8aJ	.	.
!	!	!	!	!	!	!	!	!	!LO:'ogonek po prawej stronie'	!	!	!LO:'ogonek po prawej stronie'	!	!
8dL	.	.	.	.	.	.	.	.	2f#	-rem	-gum	2a	-rem	-gum
8A	.	.	.	.	.	.	.	.	.	.	.	.	.	.
8F#	.	.	4D/	-rem	-gum	4d	-rem	-gum	.	.	.	.	.	.
8AJ	.	.	.	.	.	.	.	.	.	.	.	.	.	.
=3	=3	=3	=3	=3	=3	=3	=3	=3	=3	=3	=3	=3	=3	=3
!	!	!	!LO:'ogonek po prawej stronie'	!	!	!LO:'ogonek po prawej stronie'	!	!	!LO:'ogonek po prawej stronie'	!	!	!LO:'ogonek po prawej stronie'	!	!
4D/	.	.	2F#	pau-	sa-	2d	pau-	sa-	2a	pau-	sa-	2cc	pau-	sa-
4DD	.	.	.	.	.	.	.	.	.	.	.	.	.	.
4r	.	.	4F#	-per-	-lus	4d	-per-	-lus	4b	-per-	-lus	4dd	-per-	-lus
=4	=4	=4	=4	=4	=4	=4	=4	=4	=4	=4	=4	=4	=4	=4
!	!	!	!LO:'ogonek po prawej stronie'	!	!	!LO:'ogonek po prawej stronie'	!	!	!	!	!	!	!	!
4r	.	.	2G	-ta-	vi-	2d	-ta-	vi-	8aL	-ta-	vi-	8ccL	-ta-	vi-
.	.	.	.	.	.	.	.	.	8gJ	.	.	8bJ	.	.
!	!	!	!	!	!	!	!	!	!LO:'ogonek po prawej stronie'	!	!	!LO:'ogonek po prawej stronie'	!	!
8GL	.	.	.	.	.	.	.	.	2g	-tis	-ta	2b	-tis	-ta
8D	.	.	.	.	.	.	.	.	.	.	.	.	.	.
8BB	.	.	4GG	-tis	-ta	4d	-tis	-ta	.	.	.	.	.	.
8DJ	.	.	.	.	.	.	.	.	.	.	.	.	.	.
!LO:LB:g=original	!	!	!	!	!	!	!	!	!	!	!	!	!	!
=5	=5	=5	=5	=5	=5	=5	=5	=5	=5	=5	=5	=5	=5	=5
!	!	!	!	!	!	!	!	!	!LO:'ogonek po prawej stronie'	!	!	!LO:'ogonek po prawej stronie'	!	!
4GG	.	.	2.r	.	.	2.r	.	.	2b	te	Be-	2dd	te	Be-
4G	5	.	.	.	.	.	.	.	.	.	.	.	.	.
4G	3	.	.	.	.	.	.	.	8aL	col-	-cus	8ccL	col-	-cus
.	.	.	.	.	.	.	.	.	8gJ	.	.	8bJ	.	.
=6	=6	=6	=6	=6	=6	=6	=6	=6	=6	=6	=6	=6	=6	=6
!	!	!	!	!	!	!	!	!	!LO:'ogonek po prawej stronie'	!	!	!LO:'ogonek po prawej stronie'	!	!
8CL	10 8	.	2.r	.	.	2.r	.	.	2cc	-lau-	et	2ee	-lau-	et
8D	.	.	.	.	.	.	.	.	.	.	.	.	.	.
8E	.	.	.	.	.	.	.	.	.	.	.	.	.	.
8F#J	.	.	.	.	.	.	.	.	.	.	.	.	.	.
4G	5	.	.	.	.	.	.	.	4b	-dant	im-	4dd	-dant	im-
=7	=7	=7	=7	=7	=7	=7	=7	=7	=7	=7	=7	=7	=7	=7
4r	.	.	2.r	.	.	2.r	.	.	(4b	pau-	-pe-	(4dd	pau-	-pe-
4F#	6 5	.	.	.	.	.	.	.	4a)	.	.	4cc)	.	.
4G	.	.	.	.	.	.	.	.	4g	-pe-	-ri-	4b	-pe-	-ri-
=8	=8	=8	=8	=8	=8	=8	=8	=8	=8	=8	=8	=8	=8	=8
!	!	!	!	!	!	!	!	!	!LO:LB:g=riginal	!	!	!LO:LB:g=original	!	!
!	!	!	!	!	!	!	!	!	!LO:'ogonek po prawej stronie'	!	!	!LO:'ogonek po prawej stronie'	!	!
4D	.	.	2.r	.	.	2.r	.	.	2.f#	-res	-um	2.a	-res	-um
8dL	.	.	.	.	.	.	.	.	.	.	.	.	.	.
8c	.	.	.	.	.	.	.	.	.	.	.	.	.	.
8B	.	.	.	.	.	.	.	.	.	.	.	.	.	.
8AJ	.	.	.	.	.	.	.	.	.	.	.	.	.	.
=9	=9	=9	=9	=9	=9	=9	=9	=9	=9	=9	=9	=9	=9	=9
!	!	!	!LO:'ogonek po prawej stronie'	!	!	!LO:'ogonek po prawej stronie'	!	!	!	!	!	!LO:'ogonek po prawej stronie'	!	!
4G	.	.	2G	te	Be-	2d	te	Be-	2.r	.	.	2b	te	be-
4GG	.	.	.	.	.	.	.	.	.	.	.	.	.	.
4G	.	.	4G	col-	-cus	4B	col-	-cus	.	.	.	4g	col-	-cus
!LO:LB:g=original	!	!	!	!	!	!	!	!	!	!	!	!	!	!
=10	=10	=10	=10	=10	=10	=10	=10	=10	=10	=10	=10	=10	=10	=10
!	!	!	!LO:'ogonek po prawej stronie'	!	!	!LO:'ogonek po prawej stronie'	!	!	!	!	!	!LO:'ogonek po prawej stronie'	!	!
8CL	.	.	2c	-lau-	et	2e	-lau-	et	2.r	.	.	2cc	-lau-	et
8D	.	.	.	.	.	.	.	.	.	.	.	.	.	.
8E	.	.	.	.	.	.	.	.	.	.	.	.	.	.
8F#J	.	.	.	.	.	.	.	.	.	.	.	.	.	.
4G	.	.	4G	-dant	im-	4d	-dant	im-	.	.	.	4b	-dant	im-
!	!	!	!LO:LB:g=original	!	!	!LO:LB:g=original	!	!	!	!	!	!	!	!
=11	=11	=11	=11	=11	=11	=11	=11	=11	=11	=11	=11	=11	=11	=11
4r	.	.	(4G	pau-	-pe-	(4d	pau-	-pe-	2.r	.	.	(4b	pau-	-pe-
4F#	6 5	.	4F#)	.	.	4c)	.	.	.	.	.	4a)	.	.
4G	.	.	4G	-pe-	-ri-	4B	-pe-	-ri-	.	.	.	4g	-pe-	-ri-
=12	=12	=12	=12	=12	=12	=12	=12	=12	=12	=12	=12	=12	=12	=12
!	!	!	!LO:'ogonek po prawej stronie'	!	!	!LO:'ogonek po prawej stronie'	!	!	!	!	!	!	!	!
4d	.	.	2.D/	-res	-um	2.A	-res	-um	2.r	.	.	2.f#	-res	-um
8AL	.	.	.	.	.	.	.	.	.	.	.	.	.	.
8F#J	.	.	.	.	.	.	.	.	.	.	.	.	.	.
4D	.	.	.	.	.	.	.	.	.	.	.	.	.	.
=13	=13	=13	=13	=13	=13	=13	=13	=13	=13	=13	=13	=13	=13	=13
!	!	!	!LO:'ogonek po prawej stronie'	!	!	!LO:'ogonek po prawej stronie'	!	!	!LO:'ogonek po prawej stronie'	!	!	!LO:'ogonek po prawej stronie'	!	!
4D	5 3	.	2D/	As-	Tri-	2d	As-	Tri-	2f#	As-	Tri-	2a	As-	Tri-
4D	.	.	.	.	.	.	.	.	.	.	.	.	.	.
4D	.	.	4D/	-ser-	-ni-	4d	-ser-	-ni-	4f#	-ser-	-ni-	4a	-ser-	-ni-
=14	=14	=14	=14	=14	=14	=14	=14	=14	=14	=14	=14	=14	=14	=14
!	!	!	!LO:'ogonek po prawej stronie'	!	!	!LO:'ogonek po prawej stronie'	!	!	!LO:'ogonek po prawej stronie'	!	!	!LO:'ogonek po prawej stronie'	!	!
4D	6 4	.	2D/	-to-	-ta-	2d	-to-	-ta-	2g	-to-	-ta-	2b	-to-	-ta-
4D	.	.	.	.	.	.	.	.	.	.	.	.	.	.
4D	5 3	.	4D/	-rem	-ti	4d	-rem	-ti	4f#	-rem	-ti	4a	-rem	-ti
=15	=15	=15	=15	=15	=15	=15	=15	=15	=15	=15	=15	=15	=15	=15
2.r	.	.	2.r	.	.	2.r	.	.	8gL	ve-	La-	8bL	ve-	La-
.	.	.	.	.	.	.	.	.	8f#J	.	.	8a	.	.
.	.	.	.	.	.	.	.	.	4g	.	-us	8b	.	-us
.	.	.	.	.	.	.	.	.	.	.	.	8ddJ	.	.
.	.	.	.	.	.	.	.	.	4e	-ri-	et	8cc#L	-ri-	et
.	.	.	.	.	.	.	.	.	.	.	.	8eeJ	.	.
=16	=16	=16	=16	=16	=16	=16	=16	=16	=16	=16	=16	=16	=16	=16
!	!	!	!	!	!	!	!	!	!LO:'ogonek po prawej stronie'	!	!	!	!	!
2.r	.	.	2.r	.	.	2.r	.	.	2f#	-ta-	ho-	(4.dd	-ta-	ho-
.	.	.	.	.	.	.	.	.	.	.	.	8ff#)	.	.
.	.	.	.	.	.	.	.	.	4f#	-tis	-nor	4a	-tis	-nor
=17	=17	=17	=17	=17	=17	=17	=17	=17	=17	=17	=17	=17	=17	=17
!	!	!	!	!	!	!LO:'ogonek po prawej stronie'	!	!	!LO:'ogonek po prawej stronie'	!	!	!LO:'ogonek po prawej stronie'	!	!
4D	.	.	2D/	a-	sit	2d	a-	sit	2f#	a-	sit	2a	a-	sit
4D	.	.	.	.	.	.	.	.	.	.	.	.	.	.
4D	.	.	4D/	-mant	per	4d	-mant	per	4f#	-mant	per	4a	-mant	per
!LO:LB:g=original	!	!	!	!	!	!	!	!	!	!	!	!	!	!
=18	=18	=18	=18	=18	=18	=18	=18	=18	=18	=18	=18	=18	=18	=18
!	!	!	!	!	!	!LO:'ogonek po prawej stronie'	!	!	!LO:'ogonek po prawej stronie'	!	!	!LO:'ogonek po prawej stronie'	!	!
4D	6 4	.	2D/	{a-	om-	2d	a-	om-	2g	{a-	om-	2b	{a-	om-
4D	.	.	.	.	.	.	.	.	.	.	.	.	.	.
4D	5 3	.	4D/	-mant}	-ne	4d	-mant	-ne	4f#	-mant}	-ne	4a	-mant}	-ne
!	!	!	!	!	!	!	!	!	!LO:LB:g=original	!	!	!LO:LB:g=original	!	!
=19	=19	=19	=19	=19	=19	=19	=19	=19	=19	=19	=19	=19	=19	=19
2.r	.	.	2.r	.	.	2.r	.	.	8gL	ve-	sae-	8bL	ve-	sae-
.	.	.	.	.	.	.	.	.	8f#J	.	.	8a	.	.
.	.	.	.	.	.	.	.	.	4g	.	-cu-	8b	.	-cu-
.	.	.	.	.	.	.	.	.	.	.	.	8ddJ	.	.
.	.	.	.	.	.	.	.	.	4e	-ri	-lum	8cc#XL	-ri	-lum
.	.	.	.	.	.	.	.	.	.	.	.	8eeJ	.	.
=20	=20	=20	=20	=20	=20	=20	=20	=20	=20	=20	=20	=20	=20	=20
2.r	.	.	2.r	.	.	2.r	.	.	4f#	ju-	sae-	4.dd	ju-	{sae-
.	.	.	.	.	.	.	.	.	4f#	-di-	-cu-	.	.	.
.	.	.	.	.	.	.	.	.	.	.	.	8ff#	-di-	-cu-
.	.	.	.	.	.	.	.	.	4f#	-ces	-lum	4a	-ces	-lum}
!	!	!	!LO:LB:g=original	!	!	!LO:LB:g=original	!	!	!	!	!	!	!	!
=21	=21	=21	=21	=21	=21	=21	=21	=21	=21	=21	=21	=21	=21	=21
!	!	!	!LO:'ogonek po prawej stronie'	!	!	!LO:'ogonek po prawej stronie'	!	!	!LO:'ogonek po prawej stronie'	!	!	!LO:'ogonek po prawej stronie'	!	!
4D	7	.	2F#	fran-	qui	2d	fran-	qui	2a	fran-	qui	2ccn	fran-	qui
8DL	.	.	.	.	.	.	.	.	.	.	.	.	.	.
8E	.	.	.	.	.	.	.	.	.	.	.	.	.	.
8F#	.	.	4F#	-gis	con-	4d	-gis	con-	4a	-gis	con-	4cc	-gis	con-
8DJ	.	.	.	.	.	.	.	.	.	.	.	.	.	.
=22	=22	=22	=22	=22	=22	=22	=22	=22	=22	=22	=22	=22	=22	=22
!	!	!	!	!	!	!LO:'ogonek po prawej stronie'	!	!	!LO:'ogonek po prawej stronie'	!	!	!LO:'ogonek po prawej stronie'	!	!
4G	.	.	(4G	no-	-ci-	2d	no-	-ci-	2g	no-	-ci-	2b	no-	-ci-
4D	.	.	4D)	.	.	.	.	.	.	.	.	.	.	.
4GG	.	.	4G	-bis	-ves	4d	-bis	-ves	4b	-bis	-ves	4dd	-bis	-ves
=23	=23	=23	=23	=23	=23	=23	=23	=23	=23	=23	=23	=23	=23	=23
!	!	!	!LO:'ogonek po prawej stronie'	!	!	!LO:'ogonek po prawej stronie'	!	!	!	!	!	!	!	!
4D	7	.	2F#	fa-	nos	2d	fa-	nos	(4a	fa-	nos	(4cc	fa-	nos
8F#L	.	.	.	.	.	.	.	.	4f#)	.	.	4a)	.	.
8E	.	.	.	.	.	.	.	.	.	.	.	.	.	.
8F#	.	.	4F#	-vos	ad	4d	-vos	ad	4a	-vos	ad	4cc	-vos	ad
8DJ	.	.	.	.	.	.	.	.	.	.	.	.	.	.
!LO:LB:g=original	!	!	!	!	!	!	!	!	!	!	!	!	!	!
=24	=24	=24	=24	=24	=24	=24	=24	=24	=24	=24	=24	=24	=24	=24
!	!	!	!LO:'ogonek po prawej stronie'	!	!	!LO:'ogonek po prawej stronie'	!	!	!LO:'ogonek po prawej stronie'	!	!	!LO:'ogonek po prawej stronie'	!	!
4G	.	.	2G	mel-	scri-	2d	mel-	scri-	2g	mel-	scri-	2b	mel-	scri-
4D	.	.	.	.	.	.	.	.	.	.	.	.	.	.
4BB	5	.	4G	-lis	-bat	4d	-lis	-bat	4b	-lis	-bat	4dd	-lis	-bat
=25	=25	=25	=25	=25	=25	=25	=25	=25	=25	=25	=25	=25	=25	=25
!	!	!	!	!	!	!LO:'ogonek po prawej stronie'	!	!	!LO:'ogonek po prawej stronie'	!	!	!LO:'ogonek po prawej stronie'	!	!
8CL\	10 8	.	8CL	de-	su-	2c	de-	su-	2g	de-	su-	2ee	de-	su-
8BB	.	.	8BB	.	.	.	.	.	.	.	.	.	.	.
8C	.	.	8C	.	.	.	.	.	.	.	.	.	.	.
8D	.	.	8DJ	.	.	.	.	.	.	.	.	.	.	.
8E	.	.	8EL	-scrip-	-per	4c	-scrip-	-per	4g	-scrip-	-per	4ee	-scrip-	-per
8F#J	.	.	8F#J	.	.	.	.	.	.	.	.	.	.	.
!	!	!	!LO:LB:g=original	!	!	!	!	!	!LO:LB:g=original	!	!	!LO:LB:g=original	!	!
=26	=26	=26	=26	=26	=26	=26	=26	=26	=26	=26	=26	=26	=26	=26
4G	.	.	(4G	-tu-	no-	(4B	-tu-	no-	(4g	-tu-	no-	(4dd	-tu-	no-
4D	.	.	4D)	.	.	4A)	.	.	4f#)	.	.	4cc)	.	.
4GG	.	.	4G	-ris	-vum	4d	-ris	-vum	4g	-ris	-vum	4b	-ris	-vum
!	!	!	!	!	!	!LO:LB:g=original	!	!	!	!	!	!	!	!
=27	=27	=27	=27	=27	=27	=27	=27	=27	=27	=27	=27	=27	=27	=27
!	!	!	!	!	!	!LO:'ogonek po prawej stronie'	!	!	!LO:'ogonek po prawej stronie'	!	!	!LO:'ogonek po prawej stronie'	!	!
8CL\	10 8	.	8CL	de	su-	2c	de	su-	2g	de	su-	2ee	de	su-
8BB	.	.	8BB	.	.	.	.	.	.	.	.	.	.	.
8C	.	.	8C	.	.	.	.	.	.	.	.	.	.	.
8D	.	.	8DJ	.	.	.	.	.	.	.	.	.	.	.
8E	.	.	8EL	scrip-	-per	4c	scrip-	-per	4g	scrip-	-per	8ggL	scrip-	-per
8F#J	.	.	8F#J	.	.	.	.	.	.	.	.	8eeJ	.	.
!LO:LB:g=original	!	!	!	!	!	!	!	!	!	!	!	!	!	!
=28	=28	=28	=28	=28	=28	=28	=28	=28	=28	=28	=28	=28	=28	=28
4G	.	.	(4G	-tu-	no-	(4B	-tu-	no-	(4g	-tu-	no-	(4dd	-tu-	no-
4D	7	.	4D)	.	.	4A)	.	.	4f#)	.	.	4cc)	.	.
4E	5	.	4E	-ris	-vum	4B	-ris	-vum	4g	-ris	-vum	4b	-ris	-vum
=29	=29	=29	=29	=29	=29	=29	=29	=29	=29	=29	=29	=29	=29	=29
!	!	!	!	!	!	!LO:'ogonek po prawej stronie'	!	!	!	!	!	!	!	!
4C	8 6	.	(4C/	dis-	ci-	2d	dis-	ci-	(4a	dis-	ci-	(4cc	dis-	ci-
4D	6 4	.	4D/)	.	.	.	.	.	4g)	.	.	4b)	.	.
4DD	5 3	.	4D/	-se-	-vi-	4d	-se-	-vi-	4f#	-se-	-vi-	4a	-se-	-vi-
=30	=30	=30	=30	=30	=30	=30	=30	=30	=30	=30	=30	=30	=30	=30
!	!	!	!LO:'ogonek po prawej stronie'	!	!	!LO:'ogonek po prawej stronie'	!	!	!LO:'ogonek po prawej stronie'	!	!	!	!	!
2.GG	.	.	2.G	-rent	-um.	2.d	-rent	-um.	2.g	-rent	-um.	2.g/	-rent	-um.
!LO:TX:a:t=Dwa razy.	!	!	!	!	!	!	!	!	!	!	!	!	!	!
==31	==31	==31	==31	==31	==31	==31	==31	==31	==31	==31	==31	==31	==31	=31:|!
!	!	!	!LO:'ogonek po prawej stronie'	!	!	!LO:'ogonek po prawej stronie'	!	!	!LO:'ogonek po prawej stronie'	!	!	!LO:'ogonek po prawej stronie'	!	!
2.C	.	A-	2.c	A-	.	2.c;	A-	.	2.cc;	A-	.	2.ee;	A-	.
=32	=32	=32	=32	=32	=32	=32	=32	=32	=32	=32	=32	=32	=32	=32
!LO:'ogonek po prawej stronie'	!	!	!LO:'ogonek po prawej stronie'	!	!	!LO:'ogonek po prawej stronie'	!	!	!LO:'ogonek po prawej stronie'	!	!	!LO:'ogonek po prawej stronie'	!	!
!	!	!	!LO:TX:b:t=In primis Vesperis et in secudis Versus idem	!	!	!LO:TX:b:t=In 1	!	!	!LO:TX:b:t=In primis, et 2	!	!	!LO:TX:b:t=In Primis Vesperis, et in 2	!	!
2.G;	.	-men	2.G	-men.	.	2.d;	-men	.	2.b	-men	.	2.dd	-men	.
=	=	=	=	=	=	=	=	=	=	=	=	=	=	=
*-	*-	*-	*-	*-	*-	*-	*-	*-	*-	*-	*-	*-	*-	*-
!!!system-decoration: [(s1,s2,s3,s4)]s5
!!!ENC: Krzysztof Stępień
!!!END: 2020-01-29
!!!ENC: Anna Matuszewska
!!!END: 2020-03-02
!!!YEC: Copyright 2022 Narodowy Instytut Fryderyka Chopina (https://polishscores.org)
!!!YEM: License CC-BY-4.0 (https://creativecommons.org/licenses/by/4.0)
